X:1
T:Isaac Watts, 1709 (Hymn 140, Book 2) 86. 86. (C. M.)
T:D minor Oliver Holden, 1796
T:Tennessee No copyright. Transcribed from The Union Harmony, 1796.
%%score [ 1 2 3 4 ]
L:1/8
M:4/4
K:F
V:1 treble nm="Treble" snm="Tr."
V:2 treble nm="Counter" snm="C."
V:3 treble-8 nm="Tenor" snm="T."
V:4 bass nm="Bass" snm="B."
V:1
 A4 A3 A | A4 F4 | A4 A4 | A6 A2 | A3 A A2 A2 | A4 F4 | F3 G A2 A2 | d3 ^c d2 c2 | A3 A A2 G2 | %9
 !fermata!G4 F4 | A4 d4 | A4 A4 | A8 |] %13
V:2
 D4 D3 D | D4 D4 | F4 F4 | E6 D2 | D3 D D2 ^C2 | D4 D4 | F3 G A2 A2 | D3 ^C D2 A,2 | C3 C C2 D2 | %9
w: 1.~Give me the|wings of|faith, to|rise With-|in the veil and|see The|saints a- bove, how|great their joys, How|bright their glo- ries|
 !fermata!E4 F4 | F4 D4 | F4 E4 | D8 |] %13
w: be, How|bright their|glo- ries|be.|
V:3
 A4 F3 D | A4 A4 | d4 d4 | (^c2 d2 e2) A>G | F3 D F2 E2 | D4 D4 | F3 G A2 A2 | d3 ^c d2 e2 | %8
 f3 d A2 =B2 | !fermata!c4 A4 | (d4 f2) A2 | (A2 d4) ^c2 | d8 |] %13
V:4
 D,4 D,3 D, | D,4 D,4 | D,4 D,4 | A,6 D,2 | D,3 D, A,,2 A,,2 | D,4 D,4 | F,3 G, A,2 A,2 | %7
 D3 ^C D2 A,2 | F,3 F, F,2 G,2 | !fermata!C,4 F,4 | D,4 D,4 | D,4 A,,4 | D,8 |] %13

